packages/foundations/assets/icons/functional/images/layout/resize_14.svg

<svg width="14" height="14" viewBox="0 0 14 14" fill="none" xmlns="http://www.w3.org/2000/svg">
<g clip-path="url(#clip0_185_1511)">
<path fill-rule="evenodd" clip-rule="evenodd" d="M4.90002 8.39999C5.25901 8.39999 5.60002 8.69516 5.60002 9.09999V11.9C5.60002 12.259 5.31461 12.6 4.90002 12.6H2.10002C1.75571 12.6 1.40002 12.3245 1.40002 11.9V9.09999C1.40002 8.74101 1.69371 8.39999 2.10002 8.39999H4.90002ZM11.2 1.39999C11.9381 1.39999 12.6 2.00459 12.6 2.79999V9.79999C12.6 10.538 11.9915 11.2 11.2 11.2H7.35002C6.96342 11.2 6.65002 10.8866 6.65002 10.5C6.65002 10.141 6.93783 9.79999 7.35002 9.79999H11.2V2.79999H4.20002V6.64999C4.20002 7.03659 3.88662 7.34999 3.50002 7.34999C3.14104 7.34999 2.80002 7.05072 2.80002 6.64999V2.79999C2.80002 2.06194 3.38469 1.39999 4.20002 1.39999H11.2ZM4.20002 9.79999H2.80002V11.2H4.20002V9.79999Z" fill="#1A1C1F"/>
</g>
<defs>
<clipPath id="clip0_185_1511">
<rect width="14" height="14" fill="white"/>
</clipPath>
</defs>
</svg>

<svg xmlns="http://www.w3.org/2000/svg" width="14" height="14" fill="none"><g clip-path="url(#a)"><path fill="#1A1C1F" fill-rule="evenodd" d="M4.9 8.4c.359 0 .7.295.7.7v2.8a.7.7 0 0 1-.7.7H2.1a.7.7 0 0 1-.7-.7V9.1c0-.359.294-.7.7-.7zm6.3-7c.738 0 1.4.605 1.4 1.4v7c0 .738-.608 1.4-1.4 1.4H7.35a.7.7 0 1 1 0-1.4h3.85v-7h-7v3.85a.7.7 0 0 1-.7.7c-.359 0-.7-.3-.7-.7V2.8c0-.738.585-1.4 1.4-1.4zm-7 8.4H2.8v1.4h1.4z" clip-rule="evenodd"/></g><defs><clipPath id="a"><path fill="#fff" d="M0 0h14v14H0z"/></clipPath></defs></svg>
